X: 19458
T: Jackson's Dream
R: jig
M: 6/8
K: Dmajor
|:DED D2d|AGF F2d|AGF FED|EFE E2F|
DED D2d|AGF F2d|AGF FED|D/E/FD D3:|
|:g|f2d edB|ABd d2g|f2d edB|ABd e2g|
f2d edB|f/g/af g2e|f/g/af g2e|fdd d3:|

